X: 27047
T: Miss Hannah Of Elgin
R: jig
M: 6/8
K: Gmajor
D|G2 G Bc/d/B|GBG Bc/d/B|A2 a abg|f3 d2 f|
g2 g bag|fg/a/f agf|eag fef|g3 G2 D|
G2 G Bc/d/B|GBG Bc/d/B|A2 a abg|f3 d2 f|
g2 g bag|fg/a/f agf|eag fef|g3 G2 g|
bag agf|gfe def|gfg efg|a3 A2 g|
bag agf|gfe def|gfe def|g3 G2 g|
bag agf|gfe def|gfg efg|a3 A2 g|
ga/b/g bag|fg/a/f agf|eag fef|g3 G2 D||

